svgs/solid/kitchen-set.svg

<svg xmlns="http://www.w3.org/2000/svg" viewBox="0 0 576 512"><!--! Font Awesome Pro 6.4.2 by @fontawesome - https://fontawesome.com License - https://fontawesome.com/license (Commercial License) Copyright 2023 Fonticons, Inc. --><path d="M240 144A96 96 0 1 0 48 144a96 96 0 1 0 192 0zm44.4 32C269.9 240.1 212.5 288 144 288C64.5 288 0 223.5 0 144S64.5 0 144 0c68.5 0 125.9 47.9 140.4 112h71.8c8.8-9.8 21.6-16 35.8-16H496c26.5 0 48 21.5 48 48s-21.5 48-48 48H392c-14.2 0-27-6.2-35.8-16H284.4zM144 80a64 64 0 1 1 0 128 64 64 0 1 1 0-128zM400 240c13.3 0 24 10.7 24 24v8h96c13.3 0 24 10.7 24 24s-10.7 24-24 24H280c-13.3 0-24-10.7-24-24s10.7-24 24-24h96v-8c0-13.3 10.7-24 24-24zM288 464V352H512V464c0 26.5-21.5 48-48 48H336c-26.5 0-48-21.5-48-48zM48 320h80 16 32c26.5 0 48 21.5 48 48s-21.5 48-48 48H160c0 17.7-14.3 32-32 32H64c-17.7 0-32-14.3-32-32V336c0-8.8 7.2-16 16-16zm128 64c8.8 0 16-7.2 16-16s-7.2-16-16-16H160v32h16zM24 464H200c13.3 0 24 10.7 24 24s-10.7 24-24 24H24c-13.3 0-24-10.7-24-24s10.7-24 24-24z"/></svg>

<svg xmlns="http://www.w3.org/2000/svg" viewBox="0 0 576 512"><!--! Font Awesome Pro 6.1.1 by @fontawesome - https://fontawesome.com License - https://fontawesome.com/license (Commercial License) Copyright 2022 Fonticons, Inc. --><path d="M80 144C80 108.7 108.7 80 144 80C179.3 80 208 108.7 208 144C208 179.3 179.3 208 144 208C108.7 208 80 179.3 80 144zM284.4 176C269.9 240.1 212.5 288 144 288C64.47 288 0 223.5 0 144C0 64.47 64.47 0 144 0C212.5 0 269.9 47.87 284.4 112H356.2C365 102.2 377.8 96 392 96H496C522.5 96 544 117.5 544 144C544 170.5 522.5 192 496 192H392C377.8 192 365 185.8 356.2 176H284.4zM144 48C90.98 48 48 90.98 48 144C48 197 90.98 240 144 240C197 240 240 197 240 144C240 90.98 197 48 144 48zM424 264V272H520C533.3 272 544 282.7 544 296C544 309.3 533.3 320 520 320H280C266.7 320 256 309.3 256 296C256 282.7 266.7 272 280 272H376V264C376 250.7 386.7 240 400 240C413.3 240 424 250.7 424 264zM288 464V352H512V464C512 490.5 490.5 512 464 512H336C309.5 512 288 490.5 288 464zM176 320C202.5 320 224 341.5 224 368C224 394.5 202.5 416 176 416H160C160 433.7 145.7 448 128 448H64C46.33 448 32 433.7 32 416V336C32 327.2 39.16 320 48 320H176zM192 368C192 359.2 184.8 352 176 352H160V384H176C184.8 384 192 376.8 192 368zM200 464C213.3 464 224 474.7 224 488C224 501.3 213.3 512 200 512H24C10.75 512 0 501.3 0 488C0 474.7 10.75 464 24 464H200z"/></svg>
